server/website/public/icons/base/weather.svg

<svg width="48" height="48" viewBox="0 0 48 48" fill="none" xmlns="http://www.w3.org/2000/svg">
<g clip-path="url(#clip0_1387_17420)">
<path d="M30.8451 13.3317C31.608 13.3317 32.2209 12.7017 32.2209 11.956V8.37571C32.2209 7.61286 31.608 7 30.8451 7C30.0823 7 29.4694 7.61286 29.4694 8.37571V11.956C29.4694 12.7017 30.0831 13.3317 30.8451 13.3317ZM21.2323 16.5306C21.7791 17.0774 22.674 17.0603 23.1883 16.5306C23.7017 15.9991 23.718 15.1377 23.1883 14.6071L20.6357 12.0554C20.5088 11.9273 20.3577 11.8256 20.1912 11.7563C20.0248 11.6869 19.8462 11.6511 19.6659 11.6511C19.4855 11.6511 19.3069 11.6869 19.1405 11.7563C18.974 11.8256 18.8229 11.9273 18.696 12.0554C18.1654 12.5689 18.1654 13.4474 18.696 13.9943L21.2323 16.5306ZM38.5037 16.5306C39.0171 17.0603 39.912 17.0774 40.458 16.5306L42.9951 13.9943C43.5249 13.4474 43.5086 12.5689 42.9951 12.0554C42.8682 11.9273 42.7171 11.8256 42.5507 11.7563C42.3842 11.6869 42.2056 11.6511 42.0253 11.6511C41.8449 11.6511 41.6664 11.6869 41.4999 11.7563C41.3334 11.8256 41.1824 11.9273 41.0554 12.0554L38.5029 14.6071C37.9723 15.1386 37.9886 16 38.5029 16.5306M35.1043 31.282C37.5403 29.6406 39.0489 27.1051 39.0489 24.1874C39.0534 23.108 38.8444 22.0383 38.4338 21.04C38.0233 20.0417 37.4194 19.1344 36.6568 18.3704C35.8943 17.6064 34.9881 17.0008 33.9906 16.5884C32.993 16.176 31.9237 15.9649 30.8443 15.9674C27.8443 15.9674 25.242 17.5746 23.8671 19.978C24.5631 20.6903 25.1597 21.4694 25.6569 22.4311C31.1254 22.8786 34.6569 26.2763 35.1043 31.282ZM6.87857 40.414H24.8126C29.5029 40.414 33.1491 36.8671 33.1491 32.2763C33.1491 27.7017 29.4369 24.2534 24.4809 24.2209C22.5411 20.5249 19.0937 18.37 15.0831 18.37C9.696 18.37 5.12143 22.5631 4.62429 28C1.80686 28.8451 0 31.2314 0 34.1491C0 37.8614 2.80114 40.4149 6.87857 40.4149M43.0449 25.564H46.6243C47.37 25.564 47.9837 24.9511 48 24.1883C48 23.4254 47.37 22.8126 46.6243 22.8126H43.044C42.2983 22.8126 41.6683 23.4263 41.6683 24.1883C41.6683 24.9511 42.2983 25.564 43.044 25.564M41.0554 36.3546C41.3159 36.607 41.6653 36.7467 42.0279 36.7435C42.3906 36.7402 42.7375 36.5944 42.9934 36.3374C43.5077 35.8077 43.5249 34.9291 42.9934 34.4149L40.4246 31.8623C39.8949 31.3489 39.0326 31.3326 38.502 31.8623C38.2468 32.1239 38.104 32.4748 38.104 32.8403C38.104 33.2057 38.2468 33.5567 38.502 33.8183L41.0554 36.3546Z" fill="black"/>
</g>
<defs>
<clipPath id="clip0_1387_17420">
<rect width="48" height="48" fill="white"/>
</clipPath>
</defs>
</svg>

<svg width="48" height="48" fill="none" xmlns="http://www.w3.org/2000/svg"><g clip-path="url(#prefix__clip0_1387_17420)"><path d="M30.845 13.332c.763 0 1.376-.63 1.376-1.376v-3.58c0-.763-.613-1.376-1.376-1.376-.763 0-1.376.613-1.376 1.376v3.58c0 .746.614 1.376 1.376 1.376zm-9.613 3.199c.547.546 1.442.53 1.956 0 .514-.532.53-1.393 0-1.924l-2.552-2.552a1.363 1.363 0 00-1.94 0c-.53.514-.53 1.392 0 1.94l2.536 2.536zm17.272 0c.513.53 1.408.546 1.954 0l2.537-2.537c.53-.547.514-1.425 0-1.939a1.364 1.364 0 00-1.94 0l-2.552 2.552c-.53.532-.514 1.393 0 1.924m-3.399 14.751c2.436-1.641 3.945-4.177 3.945-7.095a8.185 8.185 0 00-8.205-8.22c-3 0-5.602 1.608-6.977 4.011a10.046 10.046 0 011.79 2.453c5.468.448 9 3.845 9.447 8.851zM6.88 40.414h17.934c4.69 0 8.336-3.547 8.336-8.138 0-4.574-3.712-8.023-8.668-8.055-1.94-3.696-5.387-5.851-9.398-5.851-5.387 0-9.962 4.193-10.459 9.63C1.807 28.845 0 31.231 0 34.15c0 3.711 2.801 6.265 6.879 6.265m36.166-14.851h3.58c.745 0 1.359-.613 1.375-1.376 0-.763-.63-1.375-1.376-1.375h-3.58c-.746 0-1.376.613-1.376 1.375 0 .763.63 1.376 1.376 1.376m-1.989 10.79a1.38 1.38 0 001.938-.017c.515-.53.532-1.408 0-1.922l-2.568-2.553c-.53-.513-1.392-.53-1.923 0a1.4 1.4 0 000 1.956l2.553 2.537z" fill="#000"/></g><defs><clipPath id="prefix__clip0_1387_17420"><path fill="#fff" d="M0 0h48v48H0z"/></clipPath></defs></svg>
